/* XPM */
static char *xpm[] = {
"64 64 2 1",
". c #ecfa26",
"  c #D0D0D0",
"                                                                ",
"                                                                ",
"                                                                ",
"                                                                ",
"                                                                ",
"                                                                ",
"                                                                ",
"                                                                ",
"                           ..................                   ",
"                          ....................                  ",
"                         ......................                 ",
"                        ........................                ",
"                        ........................                ",
"                       ..........................               ",
"                       ..........................               ",
"                        ........................                ",
"                        ........................                ",
"                         ......................                 ",
"                          ....................                  ",
"                           ..................                   ",
"                            ................                    ",
"                            ................                    ",
"                           ..................                   ",
"                           ..................                   ",
"                          ....................                  ",
"                          ....................                  ",
"                         ......................                 ",
"                         ......................                 ",
"                        ........................                ",
"                        ........................                ",
"                       ..........................               ",
"                       ..........................               ",
"                      ............................              ",
"                      ............................              ",
"                     ..............................             ",
"                     ..............................             ",
"                    ................................            ",
"                    ................................            ",
"                   ..................................           ",
"                   ..................................           ",
"                  ....................................          ",
"                  ....................................          ",
"                 ......................................         ",
"                 ......................................         ",
"                ........................................        ",
"                ........................................        ",
"               ..........................................       ",
"               ..........................................       ",
"              ............................................      ",
"              ............................................      ",
"             ..............................................     ",
"             ..............................................     ",
"            ................................................    ",
"            ................................................    ",
"           ..................................................   ",
"           ..................................................   ",
"          ....................................................  ",
"          ....................................................  ",
"         ......................................................",
"         ......................................................",
"        ........................................................",
"        ........................................................",
"                                                                ",
"                                                                ",
"                                                                ",
"                                                                "
};