/* XPM */
static char *xpm[] = {
"64 64 2 1",
". c #2ECC71",
"  c #000000",
"................................................................",
"................................................................",
"................................................................",
"................................................................",
"................................................................",
"................................................................",
"................................................................",
"................................................................",
"....................                        ....................",
"....................                        ....................",
"....................                        ....................",
"....................                        ....................",
"....................                        ....................",
"....................                        ....................",
"....................                        ....................",
"....................                        ....................",
"....................                        ....................",
"....................                        ....................",
"....................                        ....................",
"....................                        ....................",
"....................                        ....................",
"....................                        ....................",
"....................                        ....................",
"....................                        ....................",
"....................                        ....................",
"....................                        ....................",
"....................                        ....................",
"....................                        ....................",
"....................                        ....................",
"....................                        ....................",
"....................                        ....................",
"....................                        ....................",
"....................                        ....................",
"....................                        ....................",
"....................                        ....................",
"....................                        ....................",
"....................                        ....................",
"....................                        ....................",
"....................                        ....................",
"....................                        ....................",
"....................                        ....................",
"....................                        ....................",
"....................                        ....................",
"....................                        ....................",
"....................                        ....................",
"....................                        ....................",
"....................                        ....................",
"....................                        ....................",
"....................                        ....................",
"....................                        ....................",
"................................................................",
"................................................................",
"................................................................",
"................................................................",
"................................................................",
"................................................................",
"................................................................",
"................................................................",
"................................................................",
"................................................................",
"................................................................",
"................................................................",
"................................................................",
"................................................................"
};,
"................................................................",
"................................................................",
"................................................................",
"................................................................",
"................................................................",
"................................................................",
"................................................................",
"................................................................",
"................................................................",
"................................................................",
"................................................................",
"................................................................",
"................................................................",
"................................................................",
"................................................................",
"................................................................",
"................................................................",
"................................................................",
"................................................................",
"................................................................",
"................................................................",
"................................................................",
"................................................................",
"................................................................",
"................................................................",
"................................................................",
"................................................................",
"................................................................",
"................................................................",
"................................................................",
"................................................................",
"................................................................",
"................................................................",
"................................................................"
};
