/* XPM */
static char *e8d6fe1abbea4449e8bd8d648be69d9bVN5gwwzqQlPXaMgT[] = {
/* columns rows colors chars-per-pixel */
"32 32 5 1 ",
"  c None",
". c black",
"X c white",
"o c #2D2D2D",
"O c #1B1B1B",
/* pixels */
"                                ",
"                                ",
"                                ",
"             ....               ",
"          ..........            ",
"        ..............          ",
"      ..................        ",
"            ....X.              ",
"            ....X.              ",
"            ......              ",
"            .....               ",
"           ooo...               ",
"          oooo...o              ",
"          oooooooo              ",
"         ooooooooo              ",
"         ooooooo..o             ",
"         ooooooo..o             ",
"        ooooooo...o OOO         ",
"        ooooooo....oOOO         ",
"        ooooooo....oO           ",
"        oooooo.....o            ",
"       ooooooo.....o            ",
"    XXXooooooo......o           ",
"  XXXXXooooooo......o           ",
"  XXX  oooooo.......o           ",
"       oooooo.......o           ",
"       oooooo   ...oo           ",
"        oooo     ..             ",
"         .        .             ",
"         .        .             ",
"                                ",
"                                "
};
